X:90
T:Crown. JJo.090, The
B:J.Johnson Choice Collection Vol 8 1758
Z:vmp.Simon Wilson 2013 www.village-music-project.org.uk
M:6/8
L:1/8
Q:3/8=120
K:D
dAf edc|dAG FED|dAf edc|B>a^ga3:|
|:agf gbe|fad cBA|Bge caf|dbg efg|
agf gbe|fad cBA|GEg FDf|E>dcd3:|

